Papirus/22x22/apps/for-the-king.svg

<svg xmlns="http://www.w3.org/2000/svg" width="22" height="22" version="1.1">
 <path style="opacity:0.2" d="m 11.0537,1.4999772 v 9.5e-4 A 2.2828356,2.2739475 0 0 0 9.8583893,1.8036628 L 3.1416003,5.66694 A 2.2828356,2.2739475 0 0 0 2,7.6366648 v 7.7265532 a 2.2828356,2.2739475 0 0 0 1.1416003,1.968748 l 6.716789,3.863278 a 2.2828356,2.2739475 0 0 0 2.2832007,0 l 6.716789,-3.863278 a 2.2828356,2.2739475 0 0 0 1.141603,-1.968748 V 7.6366898 A 2.2828356,2.2739475 0 0 0 18.858379,5.666965 L 12.141589,1.8036878 A 2.2828356,2.2739475 0 0 0 11.0537,1.4999772 Z"/>
 <path style="fill:#744169" d="m 11.0537,0.9999999 v 9.5e-4 A 2.2828356,2.2739475 0 0 0 9.8583893,1.3036855 l -6.716789,3.863277 A 2.2828356,2.2739475 0 0 0 2,7.1366874 v 7.7265536 a 2.2828356,2.2739475 0 0 0 1.1416003,1.968748 l 6.716789,3.863277 a 2.2828356,2.2739475 0 0 0 2.2832007,0 l 6.716789,-3.863277 a 2.2828356,2.2739475 0 0 0 1.141603,-1.968748 V 7.1367124 A 2.2828356,2.2739475 0 0 0 18.858379,5.1669875 l -6.71679,-3.863277 A 2.2828356,2.2739475 0 0 0 11.0537,0.9999999 Z"/>
 <path style="opacity:0.1;fill:#ffffff" d="m 11.053702,1.000022 v 9.75e-4 A 2.2828356,2.2739475 0 0 0 9.8583913,1.3037326 l -6.71679,3.8632769 A 2.2828356,2.2739475 0 0 0 2.000001,7.1367344 V 7.6367338 A 2.2828356,2.2739475 0 0 1 3.1416013,5.667009 l 6.71679,-3.8632769 A 2.2828356,2.2739475 0 0 1 11.053702,1.500998 v -9.765e-4 a 2.2828356,2.2739475 0 0 1 1.087889,0.3037106 l 6.71679,3.8632769 a 2.2828356,2.2739475 0 0 1 1.1416,1.9697248 V 7.1367344 a 2.2828356,2.2739475 0 0 0 -1.1416,-1.9697249 L 12.141591,1.3037326 A 2.2828356,2.2739475 0 0 0 11.053702,1.000022 Z"/>
 <path style="opacity:0.7;fill:#ff4532" d="m 11.041983,3.0000199 v 9.749e-4 A 1.7755385,1.819154 0 0 0 10.112296,3.2431821 L 4.8876934,6.3340007 A 1.7755385,1.819154 0 0 0 3.9999989,7.909194 v 6.181634 a 1.7755385,1.819154 0 0 0 0.8876945,1.575194 l 5.2246026,3.08984 a 1.7755385,1.819154 0 0 0 1.77539,0 l 5.224603,-3.08984 a 1.7755385,1.819154 0 0 0 0.887694,-1.575194 V 7.909194 A 1.7755385,1.819154 0 0 0 17.112289,6.3340007 L 11.887686,3.2431836 A 1.7755385,1.819154 0 0 0 11.041983,3.0000199 Z m -0.0127,0.500976 h 0.0049 c 0.210247,0.00569 0.416049,0.064342 0.599609,0.1728513 v -9.75e-4 l 5.22361,3.0908156 c 0.394575,0.2333537 0.642642,0.6690398 0.642577,1.1455062 v 6.181634 c -1.34e-4,0.476261 -0.248172,0.911277 -0.642577,1.14453 l -5.223628,3.090817 c -0.394515,0.233419 -0.873061,0.233419 -1.267576,0 L 5.1425756,15.235358 C 4.7481711,15.002105 4.5001318,14.567088 4.4999983,14.090828 V 7.909194 C 4.4999323,7.4327281 4.7480006,6.997042 5.1425756,6.7636878 L 10.366203,3.6728707 v 9.75e-4 c 0.202395,-0.119424 0.43131,-0.1786822 0.663085,-0.1728514 z"/>
 <path style="fill:#d8bbb3" d="m 9.9999913,3 v 3.5 h 0.9999997 1 V 3 h -1 z"/>
 <path style="fill:#fee4d2" d="m 9.0840543,7.000209 -0.02802,0.909892 0.283713,0.225537 -0.339756,0.3339495 0.182137,2.2302035 -0.09281,8.388554 C 9.2761843,20.141891 10.999991,22 10.999991,22 c 0,0 1.723807,-1.858109 1.910683,-2.911655 L 12.817854,10.699791 12.999991,8.4695875 12.660236,8.135638 12.94395,7.910101 12.91593,7.000209 h -1.915939 z"/>
 <path style="opacity:0.2" d="m 9.0840543,7.000209 -0.02802,0.909892 0.283713,0.225537 -0.339756,0.3339495 0.182137,2.2302035 -0.09281,8.388554 C 9.2761843,20.141891 10.999991,22 10.999991,22 V 7.000209 Z"/>
 <path style="opacity:0.1" d="M 10.428702,0.5001095 9.4999913,1.3682736 10.254874,2.2188595 9.5654213,2.7139767 9.6855383,3.5001095 h 1.3144527 1.314453 L 12.434562,2.7139767 11.745108,2.2188595 12.499991,1.3682736 11.57128,0.5001095 10.999991,0.5040155 Z m 0.571289,5.0076037 -1.1132807,0.932617 -0.557617,0.044922 -0.53418,-0.3564455 -0.6240235,0.292969 -0.1708985,0.5205081 0.1103515,0.6708979 0.665039,0.2578131 0.4589845,-0.371094 h 0.652344 l 1.1132807,0.9003904 1.113281,-0.9003904 h 0.652344 l 0.458985,0.371094 0.665039,-0.2578131 0.110351,-0.6708979 -0.170898,-0.5205081 -0.624024,-0.292969 -0.534179,0.3564455 -0.557618,-0.04492 z"/>
 <path style="fill:#987d85" d="m 10.999991,5.0077087 -1.1134997,0.9325756 -0.557609,0.04469 -0.5339085,-0.356331 -0.624461,0.292826 -0.1705215,0.520322 0.110545,0.6714536 0.6644455,0.2575465 0.4598195,-0.371 h 0.65169 l 1.1134997,0.9 1.1135,-0.9 h 0.65169 l 0.45982,0.371 0.664445,-0.2575465 0.110545,-0.6714536 -0.170521,-0.520322 -0.624461,-0.292826 -0.533908,0.356331 -0.55761,-0.04469 z"/>
 <path style="fill:#987d85" d="M 10.428654,0 9.4999913,0.8681948 10.254768,1.7191977 9.5649593,2.2134671 9.6853423,3 h 1.3146487 1.31465 L 12.435023,2.2134671 11.745215,1.7191977 12.499991,0.8681948 11.571328,0 10.999991,0.004298 Z"/>
</svg>

<svg xmlns="http://www.w3.org/2000/svg" width="22" height="22" version="1.1">
 <circle style="opacity:0.2" cx="11" cy="11.5" r="9"/>
 <circle style="fill:#624da8" cx="11" cy="11" r="9"/>
 <path style="opacity:0.1;fill:#ffffff" d="M 11,2 A 9,9 0 0 0 2,11 9,9 0 0 0 2.0107422,11.292969 9,9 0 0 1 11,2.5 9,9 0 0 1 19.989258,11.207031 9,9 0 0 0 20,11 9,9 0 0 0 11,2 Z"/>
 <path style="fill:#d8bbb3" d="m 10,3 v 3.5 h 1 1 V 3 h -1 z"/>
 <path style="fill:#fee4d2" d="M 9.084063,7.000209 9.056043,7.910101 9.339756,8.135638 9,8.4695875 9.182137,10.699791 9.089327,19.088345 C 9.276193,20.141891 11,22 11,22 c 0,0 1.723807,-1.858109 1.910683,-2.911655 L 12.817863,10.699791 13,8.4695875 12.660245,8.135638 12.943959,7.910101 12.915939,7.000209 H 11 Z"/>
 <path style="opacity:0.2" d="M 9.084063,7.000209 9.056043,7.910101 9.339756,8.135638 9,8.4695875 9.182137,10.699791 9.089327,19.088345 C 9.276193,20.141891 11,22 11,22 V 7.000209 Z"/>
 <path style="opacity:0.1" d="M 10.428711,0.5001095 9.5,1.3682736 10.254883,2.2188595 9.56543,2.7139767 9.685547,3.5001095 H 11 12.314453 L 12.434571,2.7139767 11.745117,2.2188595 12.5,1.3682736 11.571289,0.5001095 11,0.5040157 Z M 11,5.5077132 9.886719,6.4403302 9.329102,6.4852522 8.794922,6.1288067 8.1708985,6.4217757 8,6.9422838 8.1103515,7.6131817 8.7753905,7.8709948 9.234375,7.4999008 H 9.886719 L 11,8.4002912 12.113281,7.4999008 h 0.652344 L 13.22461,7.8709948 13.889649,7.6131817 14,6.9422838 13.829102,6.4217757 13.205078,6.1288067 12.670899,6.4852522 12.113281,6.4403323 Z"/>
 <path style="fill:#987d85" d="M 11,5.0077087 9.8865,5.9402843 9.328891,5.9849742 8.7949825,5.6286432 8.1705215,5.9214692 8,6.4417912 8.110545,7.1132448 8.7749905,7.3707913 9.23481,6.9997913 H 9.8865 l 1.1135,0.9 1.1135,-0.9 h 0.65169 l 0.45982,0.371 L 13.889455,7.1132448 14,6.4417912 13.829479,5.9214692 13.205018,5.6286432 12.67111,5.9849742 12.1135,5.9402843 Z"/>
 <path style="fill:#987d85" d="M 10.428663,0 9.5,0.8681948 10.254777,1.7191977 9.564968,2.2134671 9.685351,3 H 11 12.31465 L 12.435032,2.2134671 11.745224,1.7191977 12.5,0.8681948 11.571337,0 11,0.0042984 Z"/>
</svg>
